dist/img/arrow-black.svg

<?xml version="1.0" encoding="UTF-8"?> <svg xmlns="http://www.w3.org/2000/svg" width="191" height="195" viewBox="0 0 191 195" fill="none"> <path d="M9.94572 2C-5.72052 49.0611 2.89425 90.4975 26.0222 103.511C37.7026 110.084 58.0753 112.22 72.0341 101.847C79.5236 96.2831 89.5076 83.8965 85.3388 72.4474C81.8352 62.8178 69.789 57.8643 60.3926 58.5798C43.4291 59.8723 30.3462 80.0247 28.2396 96.8544C23.7382 132.805 68.4308 160.573 73.1429 163.419C114.188 188.198 159.618 175.079 170.156 171.74" stroke="#27464B" stroke-width="3" stroke-miterlimit="10" stroke-linecap="round"></path> <path d="M161.531 192.748L185.69 165.716L154.847 162.472" stroke="#27464B" stroke-width="3" stroke-miterlimit="10" stroke-linecap="round" stroke-linejoin="round"></path> </svg>

<svg xmlns="http://www.w3.org/2000/svg" width="191" height="195" fill="none"><path d="M9.946 2C-5.721 49.061 2.894 90.498 26.022 103.511c11.68 6.573 32.053 8.709 46.012-1.664 7.49-5.564 17.474-17.95 13.305-29.4-3.504-9.63-15.55-14.583-24.946-13.867-16.964 1.292-30.047 21.445-32.153 38.274-4.502 35.951 40.19 63.719 44.903 66.565 41.045 24.779 86.475 11.66 97.013 8.321" stroke="#27464B" stroke-width="3" stroke-miterlimit="10" stroke-linecap="round"/><path d="M161.531 192.748l24.159-27.032-30.843-3.244" stroke="#27464B" stroke-width="3" stroke-miterlimit="10" stroke-linecap="round" stroke-linejoin="round"/></svg>
